assets/No bicycles/Flat/no_bicycles_flat.svg

<svg width="32" height="32" viewBox="0 0 32 32" fill="none" xmlns="http://www.w3.org/2000/svg">
<path d="M27.875 15.9375C27.875 22.5304 22.5304 27.875 15.9375 27.875C9.3446 27.875 4 22.5304 4 15.9375C4 9.3446 9.3446 4 15.9375 4C22.5304 4 27.875 9.3446 27.875 15.9375Z" fill="white"/>
<path d="M9 10.5C9 10.2239 9.22386 10 9.5 10H14.5C14.7761 10 15 10.2239 15 10.5C15 10.7761 14.7761 11 14.5 11H10.9483C10.8787 11.144 10.7413 11.2521 10.5712 11.2773C10.4616 11.2936 10.3 11.411 10.1606 11.8119C10.0325 12.1801 9.98596 12.6251 9.98596 12.9191C9.98596 13.1952 9.76211 13.4191 9.48596 13.4191C9.20982 13.4191 8.98596 13.1952 8.98596 12.9191C8.98596 12.5509 9.04063 11.9877 9.21611 11.4833C9.26937 11.3302 9.34161 11.1615 9.43882 11H9V10.5ZM17.5 11C17.2239 11 17 11.2239 17 11.5C17 11.7761 17.2239 12 17.5 12H18.6695L18.3936 12.6455H11.4756C11.2346 12.6455 11.0278 12.8175 10.9839 13.0545L10.6232 15.0021C10.5823 15.0007 10.5413 15 10.5 15C8.567 15 7 16.567 7 18.5C7 20.433 8.567 22 10.5 22C12.433 22 14 20.433 14 18.5C14 16.9541 12.9977 15.6422 11.6075 15.1789L11.8915 13.6455H17.9662L16.847 16.2639C16.7385 16.5178 16.8563 16.8116 17.1102 16.9202C17.3642 17.0287 17.658 16.9108 17.7665 16.6569L18.708 14.4542L19.3396 15.7461C18.5239 16.3869 18 17.3823 18 18.5C18 20.433 19.567 22 21.5 22C23.433 22 25 20.433 25 18.5C25 16.567 23.433 15 21.5 15C21.0438 15 20.6079 15.0873 20.2083 15.2461L19.2273 13.2394L19.757 12H20.5C20.7761 12 21 11.7761 21 11.5C21 11.2239 20.7761 11 20.5 11H17.5ZM10.5 21C9.11929 21 8 19.8807 8 18.5C8 17.1399 9.0861 16.0335 10.4383 16.0007L9.98541 18.4463C9.93513 18.7178 10.1145 18.9787 10.386 19.029C10.6575 19.0793 10.9184 18.8999 10.9687 18.6284L11.4229 16.1759C12.3468 16.5431 13 17.4453 13 18.5C13 19.8807 11.8807 21 10.5 21ZM19.793 16.6735C19.3847 17.0552 19.1045 17.5722 19.0239 18.153C19.1106 18.0808 19.2221 18.0374 19.3437 18.0374H20.4598L19.793 16.6735ZM19.0373 18.9325C19.1219 18.9982 19.2282 19.0374 19.3437 19.0374H21.2608C21.4333 19.0374 21.5936 18.9484 21.6849 18.8021C21.7763 18.6558 21.7858 18.4727 21.71 18.3177L20.6494 16.1484C20.9149 16.0524 21.2014 16 21.5 16C22.8807 16 24 17.1193 24 18.5C24 19.8807 22.8807 21 21.5 21C20.2668 21 19.2421 20.1071 19.0373 18.9325Z" fill="black"/>
<path d="M16 30C23.732 30 30 23.732 30 16C30 8.26801 23.732 2 16 2C8.26801 2 2 8.26801 2 16C2 23.732 8.26801 30 16 30ZM22.6453 24.7666C20.7991 26.1682 18.4967 27 16 27C9.92487 27 5 22.0751 5 16C5 13.5033 5.8318 11.2009 7.23339 9.35471L22.6453 24.7666ZM24.7666 22.6453L9.35471 7.23339C11.2009 5.8318 13.5033 5 16 5C22.0751 5 27 9.92487 27 16C27 18.4967 26.1682 20.7991 24.7666 22.6453Z" fill="#F8312F"/>
</svg>

<svg xmlns="http://www.w3.org/2000/svg" width="32" height="32" fill="none"><path fill="#fff" d="M27.875 15.938c0 6.592-5.345 11.937-11.938 11.937C9.346 27.875 4 22.53 4 15.937 4 9.346 9.345 4 15.938 4c6.592 0 11.937 5.345 11.937 11.938Z"/><path fill="#000" d="M9 10.5a.5.5 0 0 1 .5-.5h5a.5.5 0 0 1 0 1h-3.552a.5.5 0 0 1-.377.277c-.11.017-.271.134-.41.535a3.65 3.65 0 0 0-.175 1.107.5.5 0 0 1-1 0c0-.368.055-.931.23-1.436.053-.153.126-.322.223-.483H9v-.5Zm8.5.5a.5.5 0 0 0 0 1h1.17l-.276.646h-6.918a.5.5 0 0 0-.492.409l-.36 1.947a3.5 3.5 0 1 0 .984.177l.284-1.534h6.074l-1.119 2.619a.5.5 0 0 0 .92.393l.941-2.203.632 1.292a3.5 3.5 0 1 0 .869-.5l-.982-2.007.53-1.239h.743a.5.5 0 0 0 0-1h-3Zm-7 10a2.5 2.5 0 0 1-.062-5l-.453 2.446a.5.5 0 0 0 .984.182l.454-2.452A2.5 2.5 0 0 1 10.5 21Zm9.293-4.326a2.494 2.494 0 0 0-.77 1.479.498.498 0 0 1 .32-.116h1.117l-.667-1.363Zm-.756 2.259c.085.065.191.104.307.104h1.917a.5.5 0 0 0 .449-.72l-1.06-2.169a2.5 2.5 0 1 1-1.612 2.784Z"/><path fill="#F8312F" d="M16 30c7.732 0 14-6.268 14-14S23.732 2 16 2 2 8.268 2 16s6.268 14 14 14Zm6.645-5.233A10.952 10.952 0 0 1 16 27C9.925 27 5 22.075 5 16c0-2.497.832-4.8 2.233-6.645l15.412 15.412Zm2.122-2.122L9.355 7.233A10.952 10.952 0 0 1 16 5c6.075 0 11 4.925 11 11 0 2.497-.832 4.8-2.233 6.645Z"/></svg>
